icon-themes/sifr_svg/cmd/lc_lineendstyle.svg

<svg viewBox="0 0 24 24" xmlns="http://www.w3.org/2000/svg"><path d="m6 4c-.30945 0-.55232.0903-.75.28125l-3.25 2.84375v1.7050781c1.083464.9581329 2.166532 2.0680419 3.25 2.8886719.19768.19095.44055.28125.75.28125h.5859375.4140625v-1c0-.25689-.12983-.52846-.3125-.71875l-1.5097656-1.28125h16.8222656v-2h-16.8222656l1.5097656-1.28125c.18267-.19029.3125-.3146231.3125-.71875v-1h-.4140625zm13 10c-1.269803.0018-2.400951.802814-2.824219 2h-14.175781v2h14.173828c.423507 1.197861 1.555652 1.999046 2.826172 2 1.656852 0 3-1.343144 3-3s-1.343148-3.000002-3-3z" fill="#555753"/></svg>

<svg xmlns="http://www.w3.org/2000/svg" viewBox="0 0 24 24">
  <path
     style="fill:#555753"
     d="M 6 4 C 5.69055 4 5.44768 4.0903 5.25 4.28125 L 2 7.125 L 2 8.8300781 C 3.083464 9.788211 4.166532 10.89812 5.25 11.71875 C 5.44768 11.9097 5.69055 12 6 12 L 6.5859375 12 L 7 12 L 7 11 C 7 10.74311 6.87017 10.47154 6.6875 10.28125 L 5.1777344 9 L 22 9 L 22 7 L 5.1777344 7 L 6.6875 5.71875 C 6.87017 5.52846 7 5.4041269 7 5 L 7 4 L 6.5859375 4 L 6 4 z M 19 14 C 17.730197 14.0018 16.599049 14.802814 16.175781 16 L 2 16 L 2 18 L 16.173828 18 C 16.597335 19.197861 17.72948 19.999046 19 20 C 20.656852 20 22 18.656856 22 17 C 22 15.343144 20.656852 13.999998 19 14 z "
     />
</svg>
